docs/styles/img/icons/vk.svg

<svg width="27" height="27" viewBox="0 0 27 27" fill="none" xmlns="http://www.w3.org/2000/svg">
<rect width="27" height="27" rx="13.5" fill="#5B80B8"/>
<path fill-rule="evenodd" clip-rule="evenodd" d="M13.7957 16.9422C13.7957 16.9422 14.0463 16.9178 14.1747 16.7969C14.2922 16.6862 14.2881 16.4773 14.2881 16.4773C14.2881 16.4773 14.2725 15.5017 14.7893 15.3577C15.2987 15.216 15.9527 16.3011 16.6468 16.7184C17.1711 17.0338 17.5691 16.9648 17.5691 16.9648L19.4238 16.9422C19.4238 16.9422 20.3937 16.8898 19.9339 16.2213C19.8958 16.1666 19.6656 15.7267 18.5552 14.8232C17.3918 13.8773 17.548 14.0303 18.9484 12.394C19.8014 11.3976 20.1424 10.7893 20.0357 10.5292C19.9346 10.2804 19.307 10.3465 19.307 10.3465L17.2193 10.3578C17.2193 10.3578 17.0645 10.3393 16.9497 10.3994C16.8376 10.4584 16.765 10.5959 16.765 10.5959C16.765 10.5959 16.4349 11.3667 15.9941 12.0226C15.0644 13.4059 14.6929 13.4791 14.5407 13.3934C14.1869 13.1928 14.2752 12.5887 14.2752 12.1595C14.2752 10.8185 14.5075 10.2596 13.8236 10.1149C13.5967 10.0667 13.4296 10.0352 12.849 10.0298C12.1039 10.0233 11.4737 10.0322 11.1165 10.1852C10.8788 10.2869 10.6954 10.5143 10.8074 10.5274C10.9453 10.5435 11.2577 10.6012 11.4234 10.7988C11.6374 11.0542 11.6299 11.6268 11.6299 11.6268C11.6299 11.6268 11.7528 13.2053 11.3426 13.4012C11.0614 13.5357 10.6757 13.2613 9.84645 12.006C9.42198 11.3631 9.10142 10.6524 9.10142 10.6524C9.10142 10.6524 9.03962 10.5197 8.92891 10.4483C8.79512 10.3619 8.60835 10.3352 8.60835 10.3352L6.62456 10.3465C6.62456 10.3465 6.32641 10.3536 6.21706 10.4673C6.11995 10.5679 6.20959 10.7768 6.20959 10.7768C6.20959 10.7768 7.76281 13.9619 9.52181 15.5672C11.1348 17.0386 12.9658 16.9422 12.9658 16.9422H13.7957Z" fill="white"/>
</svg>

<svg width="27" height="27" fill="none" xmlns="http://www.w3.org/2000/svg"><rect width="27" height="27" rx="13.5" fill="#5B80B8"/><path fill-rule="evenodd" clip-rule="evenodd" d="M13.796 16.942s.25-.024.379-.145c.117-.11.113-.32.113-.32s-.015-.975.501-1.12c.51-.141 1.164.944 1.858 1.361.524.316.922.247.922.247l1.855-.023s.97-.052.51-.72c-.038-.055-.268-.495-1.379-1.399-1.163-.946-1.007-.793.393-2.429.853-.996 1.194-1.605 1.088-1.865-.101-.249-.729-.182-.729-.182l-2.088.01s-.155-.018-.27.042c-.111.06-.184.197-.184.197s-.33.77-.77 1.427c-.93 1.383-1.302 1.456-1.454 1.37-.354-.2-.266-.804-.266-1.234 0-1.34.232-1.9-.451-2.044-.227-.048-.394-.08-.975-.085-.745-.007-1.375.002-1.732.155-.238.102-.422.33-.31.342.138.017.45.074.616.272.214.255.207.828.207.828s.123 1.578-.287 1.774c-.282.135-.667-.14-1.497-1.395a11.092 11.092 0 01-.745-1.354s-.061-.132-.172-.204a.929.929 0 00-.32-.113l-1.984.011s-.299.008-.408.121c-.097.1-.007.31-.007.31s1.553 3.185 3.312 4.79c1.613 1.472 3.444 1.375 3.444 1.375h.83z" fill="#fff"/></svg>
